src/assets/icons/languages/cpp.svg

<svg viewBox="0 0 122 122" fill="none" xmlns="http://www.w3.org/2000/svg">
<g clip-path="url(#clip0_652_10839)">
<mask id="mask0_652_10839" style="mask-type:alpha" maskUnits="userSpaceOnUse" x="8" y="0" width="106" height="122">
<path d="M60.9657 0L113.665 30.4261V91.2784L60.9657 121.705L8.26615 91.2784V30.4261L60.9657 0Z" fill="black"/>
</mask>
<g mask="url(#mask0_652_10839)">
<rect width="109.333" height="123" transform="translate(6.11349 -1)" fill="#280068"/>
<path d="M114.961 34.8059C114.96 32.7581 114.522 30.9485 113.636 29.3959C112.766 27.8683 111.463 26.5883 109.715 25.5763C95.2879 17.2582 80.8466 8.9656 66.4239 0.639061C62.5356 -1.60549 58.7656 -1.52324 54.9062 0.753536C49.1636 4.13944 20.4128 20.6098 11.8454 25.5716C8.31713 27.6144 6.60026 30.7399 6.59941 34.8021C6.5939 51.5302 6.59941 68.2584 6.5939 84.9865C6.5939 86.9894 7.01411 88.7641 7.86088 90.2934C8.7314 91.8668 10.0527 93.182 11.8408 94.2169C20.4086 99.1788 49.1632 115.648 54.9045 119.035C58.7656 121.313 62.5356 121.394 66.4252 119.15C80.8483 110.823 95.2905 102.53 109.72 94.2119C111.508 93.1774 112.829 91.8613 113.7 90.2892C114.545 88.7595 114.966 86.9851 114.966 84.9818C114.966 84.9818 114.966 51.5345 114.961 34.8059Z" fill="#659AD2"/>
<path d="M60.946 60.3368L7.8609 90.8989C8.73142 92.4723 10.0527 93.7875 11.8408 94.8225C20.4086 99.7843 49.1632 116.253 54.9045 119.641C58.7656 121.919 62.5356 122 66.4252 119.755C80.8483 111.428 95.2905 103.135 109.72 94.8174C111.508 93.7829 112.829 92.4668 113.7 90.8947L60.946 60.3368Z" fill="#004482"/>
<path d="M114.961 35.4114C114.96 33.3636 114.522 31.554 113.636 30.0014L60.946 60.3372L113.7 90.8947C114.545 89.365 114.966 87.5906 114.966 85.5873C114.966 85.5873 114.966 52.1399 114.961 35.4114Z" fill="#00599C"/>
<path d="M61.0626 20.2219C75.9644 20.2219 88.9747 28.314 95.9435 40.3423L95.8757 40.2266L78.3423 50.3207C74.8882 44.4727 68.5559 40.5259 61.2911 40.4445L61.0621 40.4432C49.9846 40.4432 41.0038 49.4231 41.0038 60.4996C41.0001 63.9908 41.9123 67.4219 43.6492 70.4504C47.1067 76.4858 53.6066 80.5564 61.0626 80.5564C68.5648 80.5564 75.1015 76.434 78.5412 70.3342L78.4577 70.4805L95.9643 80.6213C89.0718 92.5478 76.2396 100.615 61.5112 100.776L61.0626 100.778C46.1137 100.778 33.0665 92.636 26.1151 80.5441C22.7216 74.641 20.78 67.7976 20.78 60.4996C20.78 38.2551 38.8145 20.2215 61.0621 20.2215L61.0626 20.2219Z" fill="white"/>
<path d="M94.4307 58.4758H90.3822V54.4277H86.3345V58.4758H82.2861V62.5238H86.3345V66.5723H90.3822V62.5238H94.4307V58.4758Z" fill="white"/>
<path d="M109.611 58.4758H105.563V54.4277H101.515V58.4758H97.4669V62.5238H101.515V66.5723H105.563V62.5238H109.611V58.4758Z" fill="white"/>
</g>
</g>
<defs>
<clipPath id="clip0_652_10839">
<rect width="121.705" height="121.705" fill="white" transform="translate(0.113495)"/>
</clipPath>
</defs>
</svg>

<svg xmlns="http://www.w3.org/2000/svg" fill="none" viewBox="0 0 122 122"><g clip-path="url(#a)"><mask id="b" width="106" height="122" x="8" y="0" maskUnits="userSpaceOnUse" style="mask-type:alpha"><path fill="#000" d="m60.966 0 52.699 30.426v60.852l-52.7 30.427L8.267 91.278V30.426L60.966 0Z"/></mask><g mask="url(#b)"><path fill="#280068" d="M6.113-1h109.333v123H6.113z"/><path fill="#659AD2" d="M114.961 34.806c-.001-2.048-.439-3.857-1.325-5.41-.87-1.528-2.173-2.808-3.921-3.82C95.288 17.258 80.847 8.966 66.424.64c-3.888-2.244-7.658-2.162-11.518.115-5.742 3.385-34.493 19.856-43.06 24.818-3.529 2.042-5.246 5.168-5.247 9.23-.005 16.728 0 33.456-.005 50.185 0 2.002.42 3.777 1.267 5.306.87 1.574 2.192 2.889 3.98 3.924 8.568 4.962 37.322 21.431 43.063 24.818 3.862 2.278 7.632 2.359 11.521.115 14.423-8.327 28.865-16.62 43.295-24.938 1.788-1.035 3.109-2.35 3.98-3.923.845-1.53 1.266-3.304 1.266-5.307 0 0 0-33.447-.005-50.176Z"/><path fill="#004482" d="M60.946 60.337 7.861 90.899c.87 1.573 2.192 2.888 3.98 3.924 8.568 4.961 37.322 21.43 43.063 24.818 3.862 2.278 7.632 2.359 11.521.114 14.423-8.327 28.865-16.62 43.295-24.938 1.788-1.034 3.109-2.35 3.98-3.922L60.946 60.337Z"/><path fill="#00599C" d="M114.961 35.411c-.001-2.047-.439-3.857-1.325-5.41l-52.69 30.336L113.7 90.895c.845-1.53 1.266-3.304 1.266-5.308 0 0 0-33.447-.005-50.176Z"/><path fill="#fff" d="M61.063 20.222c14.901 0 27.912 8.092 34.88 20.12l-.067-.115L78.342 50.32c-3.454-5.848-9.786-9.795-17.05-9.877h-.23c-11.077 0-20.058 8.98-20.058 20.056a19.959 19.959 0 0 0 2.645 9.95c3.458 6.036 9.958 10.106 17.414 10.106 7.502 0 14.038-4.122 17.478-10.222l-.083.147 17.506 10.14c-6.892 11.927-19.724 19.994-34.453 20.155l-.448.002c-14.95 0-27.997-8.142-34.948-20.234A40.091 40.091 0 0 1 20.78 60.5c0-22.245 18.035-40.279 40.282-40.279Z"/><path fill="#fff" d="M94.43 58.476h-4.048v-4.048h-4.047v4.048h-4.049v4.048h4.049v4.048h4.047v-4.048h4.049v-4.048Zm15.181 0h-4.048v-4.048h-4.048v4.048h-4.048v4.048h4.048v4.048h4.048v-4.048h4.048v-4.048Z"/></g></g><defs><clipPath id="a"><path fill="#fff" d="M.113 0h121.705v121.705H.113z"/></clipPath></defs></svg>
